X: 6
T: COME ASHORE, JOLLY TAR, YOUR TROUSERS ON
T: The Cuckoo
B: "Old English Country Dances", Frank Kidson ed., William Reeves pub., London 1890
Z: 2010-9-26 John Chambers <jc:trillian.mit.edu>
M: C
L: 1/8
K: Dm
AG |\
FEFD f2ed | cAFA c2BA | GFED C2cB | c2 G4 AG |
FEFD f2ed | cAFA c2BA | GFED C2EG | F2D2 D2 :|
|: Ac |\
d2e2 f2ed | c2A2 A3c | GAcd egde | c2G2 G2AG |
FEFD f2ed |cAFD | c2BA | GFED C2EG | F2D2 D2 :|
|: FG |\
AFDF AGFE | D4 z2EF | GECE cEDE | GFED C2Ac |
dcde f2ed | cAFA c2BA | GFED C2EG | F2D2 D2 :|


%%sep 1 1 500

%%sep 1 1 500

